X:175
T: Basket of Turf
S: Treoir 32/2
Z: B.Black
M: 6/8
R: jig
L: 1/8
K: Edor
D | GBB BAG | FAA AFD | GBB Bcd | AGF E2 D |
GBB BAG | FAA AFD | BAB Bcd | AGF E2 :|
A | Bee efg | fef dBA | Bee eag | fdc d2 A |
Bee efg | fef dBA | BAB Bcd | AGF E2 :|
